/* XPM */
static const char * fityk_xpm[] = {
"32 32 2 1",
" 	c None",
".	c #1668DC",
"                           .    ",
"                          ...   ",
"                     .   .....  ",
"                    .... .....  ",
"                   .....  ...   ",
"                   .....   .    ",
"                ..  ....        ",
"               ....  .          ",
"              .....             ",
"              .....             ",
"               ...              ",
"                                ",
"       ....                     ",
"      .....   ...    .          ",
"      .....  .....  ....        ",
"      .....  ..... .....        ",
"       ...   ..... .....        ",
"              ...   ....        ",
"                     .          ",
"             ..                 ",
"            ....                ",
"           ......               ",
"            ....                ",
"            ....                ",
"                                ",
"        ....                    ",
"  ...   .....                   ",
" ..... ......                   ",
" .....  ....                    ",
" ....    ..                     ",
"  ..                            ",
"                                "};
